svgs/regular/arrows-turn-right.svg

<svg xmlns="http://www.w3.org/2000/svg" viewBox="0 0 448 512"><!--! Font Awesome Pro 6.1.1 by @fontawesome - https://fontawesome.com License - https://fontawesome.com/license (Commercial License) Copyright 2022 Fonticons, Inc. --><path d="M294.4 7.669C303.4-2.044 318.6-2.606 328.3 6.413L440.3 110.4C445.2 114.1 448 121.3 448 128C448 134.7 445.2 141 440.3 145.6L328.3 249.6C318.6 258.6 303.4 258 294.4 248.3C285.4 238.6 285.1 223.4 295.7 214.4L362.9 152H120C80.24 152 48 184.2 48 224V264C48 277.3 37.25 288 24 288C10.75 288 0 277.3 0 264V224C0 157.7 53.73 104 120 104H362.9L295.7 41.59C285.1 32.57 285.4 17.38 294.4 7.669V7.669zM198.4 263.7C207.4 253.1 222.6 253.4 232.3 262.4L344.3 366.4C349.2 370.1 352 377.3 352 384C352 390.7 349.2 397 344.3 401.6L232.3 505.6C222.6 514.6 207.4 514 198.4 504.3C189.4 494.6 189.1 479.4 199.7 470.4L266.9 408H88C65.91 408 48 425.9 48 448V488C48 501.3 37.25 512 24 512C10.75 512 0 501.3 0 488V448C0 399.4 39.4 360 88 360H266.9L199.7 297.6C189.1 288.6 189.4 273.4 198.4 263.7V263.7z"/></svg>

<svg xmlns="http://www.w3.org/2000/svg" viewBox="0 0 448 512"><!--! Font Awesome Pro 6.4.2 by @fontawesome - https://fontawesome.com License - https://fontawesome.com/license (Commercial License) Copyright 2023 Fonticons, Inc. --><path d="M294.4 7.7c9-9.7 24.2-10.3 33.9-1.3l112 104c4.9 4.5 7.7 10.9 7.7 17.6s-2.8 13-7.7 17.6l-112 104c-9.7 9-24.9 8.5-33.9-1.3s-8.5-24.9 1.3-33.9L362.9 152H120c-39.8 0-72 32.2-72 72v40c0 13.3-10.7 24-24 24s-24-10.7-24-24V224c0-66.3 53.7-120 120-120H362.9L295.7 41.6c-9.7-9-10.3-24.2-1.3-33.9zm-96 256c9-9.7 24.2-10.3 33.9-1.3l112 104c4.9 4.5 7.7 10.9 7.7 17.6s-2.8 13-7.7 17.6l-112 104c-9.7 9-24.9 8.5-33.9-1.3s-8.5-24.9 1.3-33.9L266.9 408H88c-22.1 0-40 17.9-40 40v40c0 13.3-10.7 24-24 24s-24-10.7-24-24V448c0-48.6 39.4-88 88-88H266.9l-67.2-62.4c-9.7-9-10.3-24.2-1.3-33.9z"/></svg>
